X: 6
T:Scotland the Brave
M:4/4
L:1/16
Q:260
R:Marcha
A:Escocia
N:Repertorio básico
K:C
G4 |:  C2"F."G2 C3D E2C2 E2G2 | c2"F."g2 c3B c2G2 E2C2 | F4 A3F E2G2
E2C2 |1 D4 G4 {A} G4 {A}
 GFED :|2 D4 C3D C4 |
E2G2 | c2"F."g2 c3B c2G2E2C2 | c2"F."g2 c3B c2G2E2C2 | c2"F."g2 c3B A4 c
2B2 | A2 c2B2 A2 G
2F2E2D2 |
 C2"F."G2 C3D E2C2  E2G2 | c2"F."g2 c3B c2G2E2C2 | F4 A3F E2G2 E2C2 | D4
 C3D "D.C."
C4 ||

